svgs/sharp-light/lock-open.svg

<svg xmlns="http://www.w3.org/2000/svg" viewBox="0 0 576 512"><!--! Font Awesome Pro 6.6.0 by @fontawesome - https://fontawesome.com License - https://fontawesome.com/license (Commercial License) Copyright 2024 Fonticons, Inc. --><path d="M352 128c0-53 43-96 96-96s96 43 96 96l0 80 0 16 32 0 0-16 0-80C576 57.3 518.7 0 448 0S320 57.3 320 128l0 64L32 192 0 192l0 32L0 480l0 32 32 0 384 0 32 0 0-32 0-256 0-32-32 0-64 0 0-64zm-16 96l80 0 0 256L32 480l0-256 304 0z"/></svg>

<svg xmlns="http://www.w3.org/2000/svg" viewBox="0 0 576 512"><!--! Font Awesome Pro 6.5.2 by @fontawesome - https://fontawesome.com License - https://fontawesome.com/license (Commercial License) Copyright 2024 Fonticons, Inc. --><path d="M352 128c0-53 43-96 96-96s96 43 96 96v80 16h32V208 128C576 57.3 518.7 0 448 0S320 57.3 320 128v64H32 0v32V480v32H32 416h32V480 224 192H416 352V128zm-16 96h80V480H32V224H336z"/></svg>
